src/assets/flag-turkey.svg

<svg width="36" height="35" viewBox="0 0 36 35" fill="none" xmlns="http://www.w3.org/2000/svg">
<g clip-path="url(#clip0_353_108)">
<path d="M35.4717 26.2502C35.4717 27.2816 35.062 28.2708 34.3326 29.0001C33.6033 29.7294 32.6142 30.1391 31.5828 30.1391H4.36057C3.32917 30.1391 2.34002 29.7294 1.61071 29.0001C0.881401 28.2708 0.47168 27.2816 0.47168 26.2502V8.75022C0.47168 7.71882 0.881401 6.72967 1.61071 6.00036C2.34002 5.27105 3.32917 4.86133 4.36057 4.86133H31.5828C32.6142 4.86133 33.6033 5.27105 34.3326 6.00036C35.062 6.72967 35.4717 7.71882 35.4717 8.75022V26.2502Z" fill="#E30917"/>
<path d="M16.0268 23.3336C14.4797 23.3336 12.996 22.7191 11.902 21.6251C10.808 20.5311 10.1935 19.0474 10.1935 17.5003C10.1935 15.9532 10.808 14.4695 11.902 13.3755C12.996 12.2816 14.4797 11.667 16.0268 11.667C17.3004 11.667 18.4768 12.0802 19.4364 12.7734C18.7673 12.0123 17.9438 11.4027 17.0205 10.9851C16.0973 10.5675 15.0956 10.3515 14.0823 10.3516C12.1864 10.3516 10.3681 11.1047 9.02741 12.4454C7.68676 13.786 6.93359 15.6043 6.93359 17.5003C6.93347 18.4392 7.11828 19.3689 7.47748 20.2363C7.83668 21.1038 8.36323 21.8919 9.02707 22.5559C9.69091 23.2198 10.479 23.7465 11.3464 24.1058C12.2138 24.4651 13.1435 24.65 14.0823 24.65C16.2164 24.65 18.1268 23.7099 19.4364 22.2273C18.4453 22.947 17.2517 23.3343 16.0268 23.3336ZM19.8311 17.7239L22.2033 18.2703L22.4172 20.6941L23.6694 18.6077L26.0417 19.1531L24.4433 17.3175L25.6946 15.2302L23.4555 16.183L21.8572 14.3464L22.0711 16.7711L19.8311 17.7239Z" fill="#EEEEEE"/>
</g>
<defs>
<clipPath id="clip0_353_108">
<rect x="0.47168" width="35" height="35" fill="white"/>
</clipPath>
</defs>
</svg>

<svg xmlns="http://www.w3.org/2000/svg" width="36" height="35" fill="none"><g clip-path="url(#a)"><path fill="#E30917" d="M35.472 26.25a3.889 3.889 0 0 1-3.89 3.89H4.362a3.889 3.889 0 0 1-3.89-3.89V8.75a3.889 3.889 0 0 1 3.89-3.889h27.222a3.889 3.889 0 0 1 3.889 3.89v17.5Z"/><path fill="#EEE" d="M16.027 23.334a5.833 5.833 0 1 1 0-11.667c1.273 0 2.45.413 3.41 1.106a7.127 7.127 0 0 0-5.355-2.421 7.149 7.149 0 1 0 0 14.298c2.134 0 4.045-.94 5.354-2.423a5.797 5.797 0 0 1-3.41 1.107Zm3.804-5.61 2.372.546.214 2.424 1.252-2.086 2.373.545-1.599-1.835 1.252-2.088-2.24.953-1.598-1.837.214 2.425-2.24.953Z"/></g><defs><clipPath id="a"><path fill="#fff" d="M.472 0h35v35h-35z"/></clipPath></defs></svg>
